swiss/communes/0703.svg

<?xml version="1.0" encoding="UTF-8" standalone="no"?>
<svg
   xmlns:dc="http://purl.org/dc/elements/1.1/"
   xmlns:cc="http://web.resource.org/cc/"
   xmlns:rdf="http://www.w3.org/1999/02/22-rdf-syntax-ns#"
   xmlns:svg="http://www.w3.org/2000/svg"
   xmlns="http://www.w3.org/2000/svg"
   xmlns:xlink="http://www.w3.org/1999/xlink"
   xmlns:sodipodi="http://sodipodi.sourceforge.net/DTD/sodipodi-0.dtd"
   xmlns:inkscape="http://www.inkscape.org/namespaces/inkscape"
   height="763"
   width="603"
   version="1.0"
   id="svg20"
   sodipodi:version="0.32"
   inkscape:version="0.44.1"
   sodipodi:docname="Reconvilier-coat of arms.svg"
   sodipodi:docbase="F:\Mis Documentos\Mis imágenes\Encyclopédie\Escudos de Suiza">
  <metadata
     id="metadata31">
    <rdf:RDF>
      <cc:Work
         rdf:about="">
        <dc:format>image/svg+xml</dc:format>
        <dc:type
           rdf:resource="http://purl.org/dc/dcmitype/StillImage" />
        <dc:date>07-AUG-2006</dc:date>
        <dc:creator>
          <cc:Agent>
            <dc:title>Jérôme BLUM (wagner51)</dc:title>
          </cc:Agent>
        </dc:creator>
        <cc:license
           rdf:resource="http://creativecommons.org/licenses/GPL/2.0/" />
        <dc:coverage />
        <dc:description>Gabarit pour le Projet:Blasons de WIkipédia</dc:description>
        <dc:subject>
          <rdf:Bag>
            <rdf:li>blason suisse modèle gabarit projet blasons</rdf:li>
          </rdf:Bag>
        </dc:subject>
        <dc:language>fr</dc:language>
        <dc:title>Gabrit d'un blason suisse</dc:title>
      </cc:Work>
      <cc:License
         rdf:about="http://creativecommons.org/licenses/GPL/2.0/">
        <cc:permits
           rdf:resource="http://web.resource.org/cc/Reproduction" />
        <cc:permits
           rdf:resource="http://web.resource.org/cc/Distribution" />
        <cc:requires
           rdf:resource="http://web.resource.org/cc/Notice" />
        <cc:permits
           rdf:resource="http://web.resource.org/cc/DerivativeWorks" />
        <cc:requires
           rdf:resource="http://web.resource.org/cc/ShareAlike" />
        <cc:requires
           rdf:resource="http://web.resource.org/cc/SourceCode" />
      </cc:License>
    </rdf:RDF>
  </metadata>
  <defs
     id="defs29">
    <linearGradient
       id="linearGradient2893">
      <stop
         style="stop-color:#ffffff;stop-opacity:0.3137255;"
         offset="0"
         id="stop2895" />
      <stop
         id="stop2897"
         offset="0.19"
         style="stop-color:#ffffff;stop-opacity:0.25098041;" />
      <stop
         style="stop-color:#6b6b6b;stop-opacity:0.1254902;"
         offset="0.60000002"
         id="stop2901" />
      <stop
         style="stop-color:#000000;stop-opacity:0.1254902;"
         offset="1"
         id="stop2899" />
    </linearGradient>
    <linearGradient
       id="linearGradient2955">
      <stop
         style="stop-color:white;stop-opacity:0;"
         offset="0"
         id="stop2965" />
      <stop
         style="stop-color:black;stop-opacity:0.64583331;"
         offset="1"
         id="stop2959" />
    </linearGradient>
    <radialGradient
       inkscape:collect="always"
       xlink:href="#linearGradient2893"
       id="radialGradient3236"
       gradientUnits="userSpaceOnUse"
       gradientTransform="matrix(1.215027,1.531577e-24,1.464684e-23,1.266667,-839.1924,-490.4894)"
       cx="858.04236"
       cy="579.93323"
       fx="858.04236"
       fy="579.93323"
       r="300" />
  </defs>
  <sodipodi:namedview
     inkscape:window-height="682"
     inkscape:window-width="1024"
     inkscape:pageshadow="2"
     inkscape:pageopacity="0.0"
     guidetolerance="10.0"
     gridtolerance="10.0"
     objecttolerance="10.0"
     borderopacity="1.0"
     bordercolor="#666666"
     pagecolor="#ffffff"
     id="base"
     inkscape:zoom="0.48301887"
     inkscape:cx="335.06248"
     inkscape:cy="338.56548"
     inkscape:window-x="-4"
     inkscape:window-y="-4"
     inkscape:current-layer="layer2"
     showgrid="true" />
  <desc
     id="desc22">Coat of Arms of Canton of Freiburg (Fribourg)</desc>
  <g
     inkscape:groupmode="layer"
     id="layer1"
     inkscape:label="Fond écu"
     sodipodi:insensitive="true">
    <path
       id="path1899"
       d="M 1.5,1.49998 L 1.5,460.3679 C 1.5,626.6785 135.81456,761.5 301.49999,761.5 C 467.18543,761.5 601.5,626.6785 601.5,460.3679 L 601.5,1.49998 L 1.5,1.49998 z "
       style="fill:white;fill-opacity:1" />
  </g>
  <g
     inkscape:groupmode="layer"
     id="layer2"
     inkscape:label="Meubles"
     sodipodi:insensitive="true">
    <g
       id="g32359"
       inkscape:label="Capa 1"
       transform="matrix(0.828668,0,0,0.828668,-4.048467,-4.286558)">
      <path
         d="M 567.44961,50.272829 C 572.74547,50.221703 607.97078,129.19453 612.28486,132.30851 C 616.59895,135.42248 701.74405,143.33493 703.42853,148.42458 C 705.11301,153.51422 641.90246,211.87694 640.31392,216.99818 C 638.72538,222.11942 657.61286,306.64815 653.35806,309.84485 C 649.10327,313.04155 574.81169,270.13885 569.51583,270.18997 C 564.21997,270.2411 490.74798,314.57028 486.43389,311.45631 C 482.1198,308.34233 499.41563,223.4643 497.73116,218.37465 C 496.04667,213.28501 431.75101,156.1532 433.33955,151.03197 C 434.92809,145.91073 519.90908,136.35591 524.16387,133.15921 C 528.41867,129.96252 562.15375,50.323954 567.44961,50.272829 z "
         style="fill:black;fill-opacity:1;fill-rule:nonzero;stroke:black;stroke-width:2.49688101;stroke-linecap:butt;stroke-linejoin:miter;stroke-miterlimit:5;stroke-dasharray:none;stroke-opacity:1"
         id="path18949" />
      <path
         style="fill:black;fill-opacity:1;fill-rule:evenodd;stroke:black;stroke-width:0.99625582px;stroke-linecap:butt;stroke-linejoin:miter;stroke-opacity:1"
         d="M 1.5,3.40625 L 1.5,94.0625 C 43.04392,104.47717 80.961338,147.75154 87.59375,203.6875 C 91.58014,272.05677 134.24223,305.77352 174.59375,312.90625 C 212.83536,324.7138 251.71982,344.1659 266.4375,419.9375 C 273.88602,471.67239 306.11994,521.72985 356.8125,530.9375 C 415.92147,554.92097 444.82806,585.863 444.5625,638.28125 C 444.35852,678.54553 464.85314,699.10963 476.84375,704.59375 C 484.77251,698.38149 491.61003,693.01119 497.59375,688.25 C 497.64401,688.20639 497.69977,688.16865 497.75,688.125 C 497.77452,688.10548 497.788,688.082 497.8125,688.0625 C 526.84921,662.81506 551.01728,632.07436 568.6875,597.4375 C 557.46401,586.05772 546.81359,560.48063 545.71875,547.78125 C 540.55434,487.87825 487.27677,445.20384 457.6875,439.875 C 396.15286,415.90476 372.05772,408.07564 366.5625,328.875 C 357.89917,257.87224 318.86885,236.64676 277.21875,221.96875 C 227.1581,204.32675 189.38611,187.83685 185.84375,112.59375 C 184.38215,52.006949 140.3413,14.542062 86.375,3.4375 L 1.5,3.40625 z "
         transform="matrix(1.206756,0,0,1.206756,4.885511,5.172829)"
         id="path17229" />
    </g>
  </g>
  <g
     inkscape:groupmode="layer"
     id="layer3"
     inkscape:label="Reflet final"
     style="display:inline"
     sodipodi:insensitive="true">
    <path
       style="fill:url(#radialGradient3236);fill-opacity:1"
       d="M 1.5,1.5 L 1.5,460.3679 C 1.5,626.67854 135.81454,761.5 301.49993,761.5 C 467.1854,761.5 601.5,626.67854 601.5,460.3679 L 601.5,1.5 L 1.5,1.5 z "
       id="path2346" />
  </g>
  <g
     inkscape:groupmode="layer"
     id="layer4"
     inkscape:label="Contour final"
     style="display:inline"
     sodipodi:insensitive="true">
    <path
       style="fill:none;fill-opacity:1;stroke:#000000;stroke-width:3;stroke-miterlimit:4;stroke-dasharray:none;stroke-opacity:1"
       d="M 1.5,1.5 L 1.5,460.36794 C 1.5,626.67854 135.81454,761.5 301.49993,761.5 C 467.1854,761.5 601.5,626.67854 601.5,460.36794 L 601.5,1.5 L 1.5,1.5 z "
       id="path3239" />
  </g>
</svg>

<svg xmlns="http://www.w3.org/2000/svg" xmlns:xlink="http://www.w3.org/1999/xlink" height="763" width="603" version="1.0"><defs><radialGradient xlink:href="#a" id="b" gradientUnits="userSpaceOnUse" gradientTransform="matrix(1.21503 0 0 1.26667 -839.192 -490.49)" cx="858.042" cy="579.933" fx="858.042" fy="579.933" r="300"/><linearGradient id="a"><stop style="stop-color:#fff;stop-opacity:.3137255" offset="0"/><stop offset=".19" style="stop-color:#fff;stop-opacity:.25098041"/><stop style="stop-color:#6b6b6b;stop-opacity:.1254902" offset=".6"/><stop style="stop-color:#000;stop-opacity:.1254902" offset="1"/></linearGradient></defs><path d="M1.5 1.5v458.868c0 166.31 134.315 301.132 300 301.132s300-134.822 300-301.132V1.5H1.5z" style="fill:#fff;fill-opacity:1"/><path d="M567.45 50.273c5.295-.051 40.52 78.922 44.835 82.036 4.314 3.113 89.46 11.026 91.144 16.116 1.684 5.09-61.527 63.452-63.115 68.573-1.589 5.121 17.299 89.65 13.044 92.847-4.255 3.197-78.546-39.706-83.842-39.655-5.296.051-78.768 44.38-83.082 41.266-4.314-3.114 12.982-87.992 11.297-93.081-1.684-5.09-65.98-62.222-64.391-67.343 1.588-5.121 86.57-14.676 90.824-17.873 4.255-3.196 37.99-82.835 43.286-82.886z" style="fill:#000;fill-opacity:1;fill-rule:nonzero;stroke:#000;stroke-width:2.49688101;stroke-linecap:butt;stroke-linejoin:miter;stroke-miterlimit:5;stroke-dasharray:none;stroke-opacity:1" transform="matrix(.82867 0 0 .82867 -4.048 -4.287)"/><path style="fill:#000;fill-opacity:1;fill-rule:evenodd;stroke:#000;stroke-width:.99625582px;stroke-linecap:butt;stroke-linejoin:miter;stroke-opacity:1" d="M1.5 3.406v90.656c41.544 10.415 79.461 53.69 86.094 109.626 3.986 68.369 46.648 102.086 87 109.218 38.241 11.808 77.126 31.26 91.844 107.031 7.448 51.735 39.682 101.793 90.375 111 59.108 23.984 88.015 54.926 87.75 107.344-.204 40.265 20.29 60.829 32.28 66.313 7.93-6.213 14.767-11.583 20.75-16.344.051-.044.107-.081.157-.125.025-.02.038-.043.063-.063 29.036-25.247 53.204-55.988 70.875-90.625-11.224-11.38-21.874-36.956-22.97-49.656-5.164-59.903-58.441-102.577-88.03-107.906-61.535-23.97-85.63-31.8-91.125-111-8.664-71.003-47.694-92.228-89.344-106.906-50.06-17.642-87.833-34.132-91.375-109.375-1.462-60.587-45.503-98.052-99.469-109.156L1.5 3.405z"/><g style="display:inline"><path style="fill:url(#b);fill-opacity:1" d="M1.5 1.5v458.868c0 166.31 134.315 301.132 300 301.132s300-134.821 300-301.132V1.5H1.5z"/></g><g style="display:inline"><path style="fill:none;fill-opacity:1;stroke:#000;stroke-width:3;stroke-miterlimit:4;stroke-dasharray:none;stroke-opacity:1" d="M1.5 1.5v458.868c0 166.31 134.315 301.132 300 301.132s300-134.821 300-301.132V1.5H1.5z"/></g></svg>
